X: 64
M:4/4
L:1/8
K:G
cB|AGED CDEF|GFGA G2 cB|AGED CDED|EAAB ABcB|
cBAB cedc|BGGF GBdB|cedc BdBG|EAAG A2||

